assets/Stethoscope/Flat/stethoscope_flat.svg

<svg width="32" height="32" viewBox="0 0 32 32" fill="none" xmlns="http://www.w3.org/2000/svg">
<path d="M6.01869 5C6.56075 5 7 4.55238 7 4C7 3.44762 6.56075 3 6.01869 3H5L4 4L5 5H6.01869Z" fill="#635994"/>
<path d="M18 20.1005C18 17.0001 20.0717 14.9828 23 15C26 15.0177 28 17.1814 28 20V22.0049H26V20C26 17.8148 25 17.0001 23 17.0001C20.9035 17 20 17.914 20 20V23.622C20 27.1434 17.4173 30 14 30C10.5827 30 8 27.133 8 23.622V18.9446C4.22927 18.5167 2.00062 15.6445 2.00827 11.5C2.00827 11.4915 2.00755 11.4575 2.00653 11.4095C2.00419 11.2996 2.00029 11.1166 2 11L3 10C3 10 4.00412 11.0855 4.00378 11C4.01943 15 6.00758 17 9.00377 17C12 17 14.0006 15 14.0006 11C13.9997 11.1364 15 10 15 10L16 11C15.9996 11.168 15.9993 11.4719 15.9993 11.5C15.9993 15.6473 13.7741 18.5205 10 18.9454V23.622C10 25.9073 11.7823 28.0001 14 28.0001C16.2177 28.0001 18 25.9073 18 23.622V20.1005Z" fill="#635994"/>
<path d="M11 4C11 4.55238 11.4393 5 11.9813 5H13L14 4L13 3H11.9813C11.4393 3 11 3.44762 11 4Z" fill="#635994"/>
<path d="M4.59794 3H5V5H4.5C4.01602 5 4 5.25 4 5.5V11L2 11V5.6114C2 4.17098 3.16495 3 4.59794 3Z" fill="#00A6ED"/>
<path d="M27 25C28.6569 25 30 23.6569 30 22C30 20.3431 28.6569 19 27 19C25.3431 19 24 20.3431 24 22C24 23.6569 25.3431 25 27 25Z" fill="#00A6ED"/>
<path d="M13 3H13.4021C14.8351 3 16 4.17098 16 5.6114V11L14 11V5.5C14 5.25 13.984 5 13.5 5H13V3Z" fill="#00A6ED"/>
<path d="M27 23.5C27.8284 23.5 28.5 22.8284 28.5 22C28.5 21.1716 27.8284 20.5 27 20.5C26.1716 20.5 25.5 21.1716 25.5 22C25.5 22.8284 26.1716 23.5 27 23.5Z" fill="#3F5FFF"/>
</svg>

<svg xmlns="http://www.w3.org/2000/svg" width="32" height="32" fill="none"><path fill="#635994" d="M6.019 5A.99.99 0 0 0 7 4c0-.552-.44-1-.981-1H5L4 4l1 1h1.019ZM18 20.1c0-3.1 2.072-5.117 5-5.1 3 .018 5 2.181 5 5v2.005h-2V20c0-2.185-1-3-3-3-2.096 0-3 .914-3 3v3.622C20 27.143 17.417 30 14 30s-6-2.867-6-6.378v-4.677c-3.77-.428-6-3.3-5.992-7.445l-.001-.09C2.004 11.3 2 11.117 2 11l1-1s1.004 1.085 1.004 1c.015 4 2.004 6 5 6S14 15 14 11C14 11.136 15 10 15 10l1 1v.5c0 4.147-2.226 7.02-6 7.445v4.677C10 25.907 11.782 28 14 28s4-2.093 4-4.378v-3.521ZM11 4c0 .552.44 1 .981 1H13l1-1-1-1h-1.019A.99.99 0 0 0 11 4Z"/><path fill="#00A6ED" d="M4.598 3H5v2h-.5c-.484 0-.5.25-.5.5V11H2V5.611A2.607 2.607 0 0 1 4.598 3ZM27 25a3 3 0 1 0 0-6 3 3 0 0 0 0 6ZM13 3h.402A2.607 2.607 0 0 1 16 5.611V11h-2V5.5c0-.25-.016-.5-.5-.5H13V3Z"/><path fill="#3F5FFF" d="M27 23.5a1.5 1.5 0 1 0 0-3 1.5 1.5 0 0 0 0 3Z"/></svg>
